X:109
T:Old Thro’ the Wood Laddy TS.109
M:3/4
L:1/8
Q:3/4=30
S:Thomas Sands’ MS,1810,Lincolnshire
R:air
N:Scottish slow air 18th C. or earlier
O:England;Lincolnshire
Z:vmp.Ruairidh Greig, 2011
K:F
F>C|D2D>E F>G|{B}A4f>c|d>e f>d c>A|{A}G4F>G|
A2A>B A>G|A>G F>E F>G|A>G A>B A>G|A>G F>E F>C|
D2D>E F>G|{B}A4 f>c|(a/g/f/e/) (f/e/d/c/) (d/c/B/A/)|{A}G4B>c|
d>e f>d c>A|B>c (dc/B/) AG|A2 D>F E>G|{G}F4:|
|:f>c| d2d>e f>g|a4f>g|a2 bagf|{a}g4 f>g|
a2 a>b a>g|a>g f>e f>g|a>g a>b a>g|a>g f>e f>c|
d2d>e f>g|{b}”tr”a4 f>g|(a/g/f/e/) (f/e/d/c/) (d/c/B/A/)|{A}”tr”G4 B>c|
d>e f>d c>A|B>c (dc/B/) A>G|A2 D>F E>G|”tr”F4:|]

